static/images/episodes.svg

<svg xmlns="http://www.w3.org/2000/svg" width="40" height="40" fill="none"><path fill="#fff" d="M30.2 13.4H30v-.2c0-1.7-1.4-3-3.1-3h-.2V10c0-1.7-1.4-3-3-3h-7.3c-1.7 0-3 1.4-3 3v.2h-.2c-1.7 0-3 1.4-3 3v.2H10c-1.7 0-3 1.4-3 3v13.9c0 1.7 1.4 3 3 3h20.4c1.7 0 3-1.4 3-3V16.4c0-1.7-1.4-3-3-3h-.2Zm0 17.9H9.7c-.6 0-1-.5-1-1V16.4c0-.6.5-1 1-1h20.4c.6 0 1 .5 1 1v13.9c0 .6-.5 1-1 1h.1Zm-15-21.4c0-.6.5-1 1-1h7.3c.6 0 1 .5 1 1v.2h-9.4v-.2h.1Zm-3.3 3.3c0-.6.5-1 1-1h13.9c.6 0 1 .5 1 1v.2H12v-.2h-.1Z"/><path fill="#fff" d="M24.1 22.6c.4.2.4.8 0 1l-5.7 3.3c-.4.2-.9 0-.9-.5v-6.6c0-.5.5-.8.9-.5l5.7 3.3Z"/></svg>

<svg width="40" height="40" viewBox="0 0 40 40" fill="none" xmlns="http://www.w3.org/2000/svg">
<path d="M30.2 13.4H30V13.2C30 11.5 28.6 10.2 26.9 10.2H26.7V10C26.7 8.3 25.3 7 23.7 7H16.4C14.7 7 13.4 8.4 13.4 10V10.2H13.2C11.5 10.2 10.2 11.6 10.2 13.2V13.4H10C8.3 13.4 7 14.8 7 16.4V30.3C7 32 8.4 33.3 10 33.3H30.4C32.1 33.3 33.4 31.9 33.4 30.3V16.4C33.4 14.7 32 13.4 30.4 13.4H30.2ZM30.2 31.3H9.7C9.1 31.3 8.7 30.8 8.7 30.3V16.4C8.7 15.8 9.2 15.4 9.7 15.4H30.1C30.7 15.4 31.1 15.9 31.1 16.4V30.3C31.1 30.9 30.6 31.3 30.1 31.3H30.2ZM15.2 9.9C15.2 9.3 15.7 8.9 16.2 8.9H23.5C24.1 8.9 24.5 9.4 24.5 9.9V10.1H15.1V9.9H15.2ZM11.9 13.2C11.9 12.6 12.4 12.2 12.9 12.2H26.8C27.4 12.2 27.8 12.7 27.8 13.2V13.4H12V13.2H11.9Z" fill="white"/>
<path d="M24.1 22.5999C24.5 22.7999 24.5 23.3999 24.1 23.5999L18.4 26.8999C18 27.0999 17.5 26.8999 17.5 26.3999V19.7999C17.5 19.2999 18 18.9999 18.4 19.2999L24.1 22.5999Z" fill="white"/>
</svg>
